assets/icons/tratamiento.svg

<?xml version="1.0" ?>
<!-- Uploaded to: SVG Repo, www.svgrepo.com, Generator: SVG Repo Mixer Tools -->
<svg width="800px" height="800px" viewBox="0 0 64 64" id="Layer_1" version="1.1" xml:space="preserve" xmlns="http://www.w3.org/2000/svg" xmlns:xlink="http://www.w3.org/1999/xlink">
<style type="text/css">
	.st0{fill:#5C6373;}
	.st1{fill:#7D828C;}
	.st2{fill:#A4A5A6;}
</style>
<g id="Layer_17">
<path class="st0" d="M40,7h-2V5c0-0.6-0.4-1-1-1H23c-0.6,0-1,0.4-1,1v2h-2V5c0-1.7,1.3-3,3-3h14c1.7,0,3,1.3,3,3V7z"/>
<path class="st0" d="M15,25h-5c-1.7,0-3-1.3-3-3V10c0-1.7,1.3-3,3-3h8v2h-8c-0.6,0-1,0.4-1,1v12c0,0.6,0.4,1,1,1h5V25z"/>
<path class="st0" d="M56,47h-2v-7c0-0.6-0.4-1-1-1h-8v-2h8c1.7,0,3,1.3,3,3V47z"/>
<path class="st0" d="M14,58V38C7.4,38,2,43.4,2,50v8H14z"/>
<rect class="st1" height="4" width="60" x="2" y="58"/>
<rect class="st0" height="12" width="20" x="42" y="46"/>
<rect class="st2" height="2" width="4" x="45" y="49"/>
<rect class="st2" height="2" width="4" x="55" y="49"/>
<path class="st2" d="M46,46V13c0-3.9-3.1-7-7-7l0,0c-3.9,0-7,3.1-7,7v33H46z"/>
<path class="st2" d="M28,46V13c0-3.9-3.1-7-7-7l0,0c-3.9,0-7,3.1-7,7v33H28z"/>
<rect class="st1" height="4" width="30" x="12" y="46"/>
<rect class="st0" height="2" width="36" x="12" y="33"/>
<rect class="st0" height="2" width="36" x="12" y="29"/>
<rect class="st0" height="2" width="36" x="12" y="17"/>
<rect class="st0" height="2" width="36" x="12" y="13"/>
<rect class="st2" height="8" width="10" x="32" y="50"/>
<rect class="st2" height="8" width="14" x="14" y="50"/>
<path class="st2" d="M62,46h-4V28c0-1.1-0.9-2-2-2H46v-4h10c3.3,0,6,2.7,6,6V46z"/>
</g>
</svg>

<?xml version="1.0" encoding="UTF-8" standalone="no"?>
<!-- Uploaded to: SVG Repo, www.svgrepo.com, Generator: SVG Repo Mixer Tools -->

<svg
   width="800"
   height="800"
   viewBox="0 0 64 64"
   id="Layer_1"
   version="1.1"
   xml:space="preserve"
   sodipodi:docname="tratamiento.svg"
   xmlns:inkscape="http://www.inkscape.org/namespaces/inkscape"
   xmlns:sodipodi="http://sodipodi.sourceforge.net/DTD/sodipodi-0.dtd"
   xmlns="http://www.w3.org/2000/svg"
   xmlns:svg="http://www.w3.org/2000/svg"><defs
   id="defs44" /><sodipodi:namedview
   id="namedview42"
   pagecolor="#ffffff"
   bordercolor="#000000"
   borderopacity="0.25"
   inkscape:showpageshadow="2"
   inkscape:pageopacity="0.0"
   inkscape:pagecheckerboard="0"
   inkscape:deskcolor="#d1d1d1"
   showgrid="false" />

<style
   type="text/css"
   id="style2">
	.st0{fill:#5C6373;}
	.st1{fill:#7D828C;}
	.st2{fill:#A4A5A6;}
</style>

<g
   id="Layer_17">

<path
   class="st0"
   d="M 40,7 H 38 V 5 C 38,4.4 37.6,4 37,4 H 23 C 22.4,4 22,4.4 22,5 V 7 H 20 V 5 c 0,-1.7 1.3,-3 3,-3 h 14 c 1.7,0 3,1.3 3,3 z"
   id="path4" />

<path
   class="st0"
   d="M 15,25 H 10 C 8.3,25 7,23.7 7,22 V 10 C 7,8.3 8.3,7 10,7 h 8 V 9 H 10 C 9.4,9 9,9.4 9,10 v 12 c 0,0.6 0.4,1 1,1 h 5 z"
   id="path6" />

<path
   class="st0"
   d="m 56,47 h -2 v -7 c 0,-0.6 -0.4,-1 -1,-1 h -8 v -2 h 8 c 1.7,0 3,1.3 3,3 z"
   id="path8" />

<path
   class="st0"
   d="M 14,58 V 38 C 7.4,38 2,43.4 2,50 v 8 z"
   id="path10" />

<rect
   class="st1"
   height="4"
   width="60"
   x="2"
   y="58"
   id="rect12" />

<rect
   class="st0"
   height="12"
   width="20"
   x="42"
   y="46"
   id="rect14" />

<rect
   class="st2"
   height="2"
   width="4"
   x="45"
   y="49"
   id="rect16" />

<rect
   class="st2"
   height="2"
   width="4"
   x="55"
   y="49"
   id="rect18" />

<path
   class="st2"
   d="M 46,46 V 13 C 46,9.1 42.9,6 39,6 v 0 c -3.9,0 -7,3.1 -7,7 v 33 z"
   id="path20"
   style="fill:#cbb32b;fill-opacity:1" />

<path
   class="st2"
   d="M 28,46 V 13 C 28,9.1 24.9,6 21,6 v 0 c -3.9,0 -7,3.1 -7,7 v 33 z"
   id="path22"
   style="fill:#cbb32b;fill-opacity:1" />

<rect
   class="st1"
   height="4"
   width="30"
   x="12"
   y="46"
   id="rect24" />

<rect
   class="st0"
   height="2"
   width="36"
   x="12"
   y="33"
   id="rect26" />

<rect
   class="st0"
   height="2"
   width="36"
   x="12"
   y="29"
   id="rect28" />

<rect
   class="st0"
   height="2"
   width="36"
   x="12"
   y="17"
   id="rect30" />

<rect
   class="st0"
   height="2"
   width="36"
   x="12"
   y="13"
   id="rect32" />

<rect
   class="st2"
   height="8"
   width="10"
   x="32"
   y="50"
   id="rect34"
   style="fill:#cbb32b;fill-opacity:1" />

<rect
   class="st2"
   height="8"
   width="14"
   x="14"
   y="50"
   id="rect36"
   style="fill:#cbb32b;fill-opacity:1" />

<path
   class="st2"
   d="M 62,46 H 58 V 28 c 0,-1.1 -0.9,-2 -2,-2 H 46 v -4 h 10 c 3.3,0 6,2.7 6,6 z"
   id="path38" />

</g>

</svg>
